src/images/circuits/british.svg

<svg width="41" height="30" viewBox="0 0 41 30" fill="none" xmlns="http://www.w3.org/2000/svg">
<path d="M37.327 17.1447L27.6404 8.23344C27.6074 8.20307 27.5792 8.16929 27.5554 8.13125C26.8904 7.06714 25.4768 4.82036 24.8647 3.90225C24.0858 2.73389 22.7877 2.86371 22.0088 3.12335C21.2299 3.38298 19.8019 3.25316 18.7634 2.60408L18.7147 2.57365C17.7124 1.947 17.3231 1.70355 16.5565 2.21463C15.9334 2.63004 13.614 2.04063 12.5322 1.69399C10.8013 1.39129 6.87214 0.837802 5.00278 1.04551C2.66608 1.30514 2.14665 3.77346 1.7572 5.33126C1.36775 6.88906 0.19943 13.1203 1.88705 16.2359C3.57467 19.3515 5.3921 19.3515 6.82009 18.3129C7.78609 17.6104 6.2829 16.4871 5.01072 15.7906C4.70071 15.6209 4.63298 15.1938 4.89034 14.9516L6.56024 13.3799C8.50748 11.5622 13.1549 7.5373 16.1667 5.9795C18.8036 4.61556 20.4387 6.33663 21.1244 7.74457C21.2637 8.03076 21.061 8.34935 20.7446 8.3845L18.6711 8.61492C18.2987 8.6563 18.1011 9.07779 18.3041 9.39273C18.8005 10.1629 19.4736 11.2411 19.9317 12.0809C20.7106 13.5089 20.8405 15.0667 19.4125 17.1437C18.2701 18.8054 19.196 20.4324 19.8018 21.0382C20.7105 21.947 22.7875 24.1019 23.8261 25.452C25.1242 27.1396 27.4609 29.0869 28.2398 29.3465C29.0187 29.6062 30.3169 28.1782 30.5766 27.3993C30.7155 26.9825 30.5911 26.465 30.4288 26.0644C30.3193 25.7943 30.4079 25.4667 30.6663 25.3318L33.1729 24.024C33.7354 23.6779 35.2759 22.9595 36.9376 22.8557C39.0146 22.7259 39.5339 21.1681 39.7935 20.519C40.0012 19.9997 38.2357 18.0531 37.327 17.1447Z" stroke="#FF0000"/>
</svg>

<svg width="41" height="30" fill="none" xmlns="http://www.w3.org/2000/svg"><path d="M37.327 17.145 27.64 8.233a.494.494 0 0 1-.085-.102c-.665-1.064-2.078-3.31-2.69-4.229-.78-1.168-2.077-1.038-2.856-.779-.78.26-2.207.13-3.246-.519l-.048-.03c-1.003-.627-1.392-.87-2.159-.36-.623.416-2.942-.173-4.024-.52-1.73-.303-5.66-.856-7.53-.648-2.336.26-2.855 2.727-3.245 4.285-.39 1.558-1.558 7.79.13 10.905 1.688 3.116 3.505 3.116 4.933 2.077.966-.703-.537-1.826-1.81-2.522-.31-.17-.377-.597-.12-.84l1.67-1.571c1.947-1.818 6.595-5.843 9.607-7.4 2.637-1.364 4.272.357 4.957 1.765.14.286-.063.604-.38.64l-2.073.23a.506.506 0 0 0-.367.778c.497.77 1.17 1.848 1.628 2.688.779 1.428.909 2.986-.52 5.063-1.142 1.661-.216 3.288.39 3.894.909.909 2.986 3.064 4.024 4.414 1.298 1.688 3.635 3.635 4.414 3.894.779.26 2.077-1.168 2.337-1.947.138-.416.014-.934-.148-1.335-.11-.27-.021-.597.237-.732l2.507-1.308c.562-.346 2.103-1.065 3.765-1.168 2.077-.13 2.596-1.688 2.855-2.337.208-.52-1.557-2.466-2.466-3.374Z" stroke="red"/></svg>
